public/svg/explore-products.svg

<svg width="339" height="381" viewBox="0 0 339 381" fill="none" xmlns="http://www.w3.org/2000/svg">
<g clip-path="url(#clip0_211_5802)">
<path d="M332.155 217.814L338.989 214.873L335.804 201.89L328.39 202.448L322.451 191.639L326.902 185.676L317.651 176.018L311.504 180.202L300.963 173.809L301.835 166.417L288.993 162.674L285.762 169.381L273.432 169.114L270.491 162.279L257.51 165.464L258.068 172.879L247.26 178.819L241.298 174.367L231.641 183.619L235.824 189.768L229.432 200.321L222.041 199.449L218.299 212.293L225.005 215.524L224.737 227.856L217.904 230.797L221.088 243.779L228.503 243.221L234.441 254.031L229.99 259.993L239.241 269.652L245.389 265.468L255.941 271.86L255.07 279.253L267.911 282.995L271.142 276.289L283.473 276.556L286.413 283.39L299.394 280.206L298.836 272.79L309.644 266.851L315.606 271.302L325.264 262.051L321.08 255.902L327.472 245.348L334.863 246.22L338.605 233.377L331.899 230.146L332.167 217.814H332.155ZM278.44 253.45C261.531 253.45 247.818 239.735 247.818 222.823C247.818 205.912 261.531 192.197 278.44 192.197C295.35 192.197 309.063 205.912 309.063 222.823C309.063 239.735 295.35 253.45 278.44 253.45Z" fill="#3D7AB8"/>
<path d="M242.077 305.544L247.585 304.521L247.399 294.455L241.856 293.63L239.287 284.704L243.541 281.066L238.346 272.442L233.14 274.499L226.457 268.048L228.328 262.76L219.519 257.878L216.033 262.26L207.015 260.017L205.992 254.507L195.928 254.693L195.102 260.237L186.177 262.806L182.54 258.552L173.916 263.748L175.973 268.955L169.523 275.638L164.236 273.767L159.355 282.577L163.736 286.064L161.493 295.083L155.984 296.106L156.17 306.171L161.714 306.997L164.282 315.923L160.029 319.561L165.223 328.185L170.43 326.128L177.112 332.579L175.241 337.867L184.05 342.749L187.537 338.367L196.555 340.61L197.578 346.119L207.642 345.933L208.467 340.389L217.393 337.821L221.03 342.075L229.653 336.879L227.596 331.672L234.046 324.989L239.334 326.86L244.215 318.05L239.834 314.563L242.077 305.544ZM196.706 322.804C184.283 319.991 176.496 307.647 179.297 295.222C182.11 282.798 194.452 275.01 206.875 277.811C219.298 280.624 227.085 292.968 224.284 305.393C221.472 317.817 209.13 325.605 196.706 322.804Z" fill="#3D7AB8"/>
<path d="M314.467 77.5947H205.283C202.112 77.5947 199.542 80.1654 199.542 83.3365V163.233C199.542 166.404 202.112 168.974 205.283 168.974H314.467C317.638 168.974 320.208 166.404 320.208 163.233V83.3365C320.208 80.1654 317.638 77.5947 314.467 77.5947Z" fill="white"/>
<path d="M308.064 162.965C304.798 162.965 302.148 160.315 302.148 157.049C302.148 134.826 284.077 116.753 261.857 116.753C239.636 116.753 221.565 134.826 221.565 157.049C221.565 160.315 218.915 162.965 215.649 162.965C212.384 162.965 209.734 160.315 209.734 157.049C209.734 128.306 233.117 104.92 261.857 104.92C290.597 104.92 313.979 128.306 313.979 157.049C313.979 160.315 311.329 162.965 308.064 162.965Z" fill="#21558A" stroke="#21558A" stroke-width="4.24" stroke-miterlimit="10"/>
<path d="M215.638 162.965C212.372 162.965 209.722 160.315 209.722 157.049C209.722 128.306 233.105 104.92 261.845 104.92C265.111 104.92 267.76 107.57 267.76 110.836C267.76 114.103 265.111 116.753 261.845 116.753C239.625 116.753 221.553 134.826 221.553 157.049C221.553 160.315 218.903 162.965 215.638 162.965Z" fill="#2DC374"/>
<path d="M205.027 77.5947H314.723C317.756 77.5947 320.208 80.0588 320.208 83.0808V90.1708H199.542V83.0808C199.542 80.0472 202.006 77.5947 205.027 77.5947Z" fill="#21558A"/>
<path d="M248.782 36.5073H227.515V57.7773H248.782V36.5073Z" stroke="#2DC374" stroke-width="1.7" stroke-miterlimit="10" stroke-linecap="round"/>
<path d="M233.628 43.5393L238.741 52.5471C238.741 52.5471 249.84 34.7175 257.487 28.9409" stroke="#2DC374" stroke-width="3.39" stroke-miterlimit="10" stroke-linecap="round"/>
<path d="M283.542 36.5073H262.275V57.7773H283.542V36.5073Z" stroke="#2DC374" stroke-width="1.7" stroke-miterlimit="10" stroke-linecap="round"/>
<path d="M267.969 43.5393L273.083 52.5471C273.083 52.5471 284.182 34.7175 291.828 28.9409" stroke="#2DC374" stroke-width="3.39" stroke-miterlimit="10" stroke-linecap="round"/>
<path d="M318.302 36.5073H297.035V57.7773H318.302V36.5073Z" stroke="#2DC374" stroke-width="1.7" stroke-miterlimit="10" stroke-linecap="round"/>
<path d="M50.4725 373.945C50.4725 373.945 65.1389 367.994 66.4638 337.356L140.737 340.982C140.737 340.982 177.67 348.595 184.05 342.737C184.05 342.737 172.754 373.596 150.592 378.455C128.418 383.301 50.4725 373.945 50.4725 373.945Z" fill="#21558A"/>
<path d="M63.5468 355.465C67.4749 343.877 67.1959 333.311 62.9192 331.87C58.6541 330.429 52.0182 338.646 48.0902 350.234C44.1621 361.822 44.441 372.388 48.7177 373.829C52.9828 375.27 59.6187 367.053 63.5468 355.465Z" fill="#21558A"/>
<path d="M66.4755 155.666L83.3034 147.809C83.3034 147.809 93.5188 146.635 96.6682 150.017C99.8293 153.4 112.218 192.627 112.218 192.627L77.2835 199.612L66.4755 155.654V155.666Z" fill="#C1CFD9"/>
<path d="M27.613 162.373L0.871826 273.79H112.218L96.8889 189.931C96.8889 189.931 64.9529 159.165 27.613 162.373Z" fill="#C1CFD9"/>
<path d="M60.223 79.7101C69.1948 77.7923 81.4555 74.5612 85.5579 85.0567C89.6603 95.5522 97.4816 132.443 74.378 136.918C51.2744 141.393 46.4399 122.61 46.4399 122.61C46.4399 122.61 37.131 130.653 31.5411 122.61C25.9511 114.567 33.0286 105.908 41.9772 107.628C41.9772 107.628 34.8997 85.1264 60.2346 79.7217L60.223 79.7101Z" fill="#FCD2DE"/>
<path d="M38.6186 77.5948C47.2185 71.4928 60.9784 61.5203 64.3254 63.0778C67.684 64.6236 64.3254 69.668 64.3254 69.668C64.3254 69.668 77.7366 59.5328 84.4423 60.9624C91.1479 62.392 95.2503 73.2013 93.7511 79.7218C92.2635 86.2423 78.8523 92.5768 69.5318 79.7218C69.5318 79.7218 62.4543 89.2294 57.98 89.9733C53.5058 90.7171 49.415 87.7416 49.415 87.7416C49.415 87.7416 47.5555 105.176 41.9656 107.64C36.3756 110.104 34.1443 106.001 33.0286 103.026C31.913 100.05 24.7425 87.4627 38.6186 77.6181V77.5948Z" fill="#231E1F"/>
<path d="M72.1467 98.2139C72.1467 98.2139 73.2624 106.338 74.3781 107.652C75.4937 108.965 77.3532 115.3 74.3781 117.171" stroke="#231E1F" stroke-width="0.85" stroke-miterlimit="10" stroke-linecap="round"/>
<path d="M34.8649 114.207C34.8649 114.207 40.5246 111.034 44.0575 118.275" stroke="black" stroke-width="0.68" stroke-miterlimit="10"/>
<path d="M64.3951 120.507C64.3951 120.507 71.7516 126.411 79.2242 121.297" stroke="#231E1F" stroke-width="0.85" stroke-miterlimit="10" stroke-linecap="round"/>
<path d="M63.7211 104.944C63.9419 106.687 63.2562 108.21 62.1987 108.349C61.1411 108.477 60.1068 107.175 59.886 105.42C59.6652 103.665 60.3508 102.154 61.4084 102.015C62.4659 101.887 63.5003 103.188 63.7211 104.944Z" fill="#231E1F"/>
<path d="M56.9109 99.376C56.9109 99.376 57.829 96.0983 60.9784 95.7031" stroke="#231E1F" stroke-width="1.7" stroke-miterlimit="10" stroke-linecap="round"/>
<path d="M46.4399 122.599L44.0459 145.589C44.0459 145.589 65.8827 157.665 74.0643 157.014C82.2459 156.363 80.8048 146.902 80.8048 146.902L76.9116 136.256C76.9116 136.256 57.5617 138.29 46.4399 122.61V122.599Z" fill="#FCD2DE"/>
<path d="M42.2097 145.845L43.3951 137.592L69.1252 145.845L75.9935 153.202L77.1324 143.88L80.9094 140.998L83.3034 147.82C83.3034 147.82 83.0361 157.014 77.6554 158.723C72.2746 160.431 52.3204 155.306 42.2097 145.856V145.845Z" fill="#C1CFD9"/>
<path d="M5.43912 273.79C5.43912 273.79 3.35887 297.373 4.05616 307.066C4.75345 316.772 7.51938 330.975 52.5528 335.822C97.5862 340.668 180.796 351.013 184.05 342.726C187.304 334.438 192.162 309.461 176.217 300.29C160.284 291.12 112.206 273.778 112.206 273.778H5.43912V273.79Z" fill="#21558A"/>
<path d="M17.5255 327.116C17.5255 327.116 21.4885 333.241 66.4638 337.356C111.439 341.471 140.737 335.206 140.737 335.206" stroke="white" stroke-width="0.85" stroke-miterlimit="10" stroke-linecap="round"/>
<path d="M77.4927 101.631C77.76 103.375 78.8292 104.653 79.8867 104.49C80.9443 104.328 81.5718 102.782 81.3045 101.05C81.0372 99.3065 79.9681 98.028 78.9105 98.1907C77.8529 98.3534 77.2254 99.8993 77.4927 101.631Z" fill="#231E1F"/>
<path d="M82.5132 94.4016C82.5132 94.4016 80.7235 91.4958 77.5857 91.984" stroke="#231E1F" stroke-width="1.7" stroke-miterlimit="10" stroke-linecap="round"/>
<path d="M108.836 182.271C108.836 182.271 74.1456 161.547 66.4754 155.678C58.8052 149.808 41.4427 140.115 31.5295 152.97C21.6163 165.825 30.1814 189.942 45.9518 200.763C61.7338 211.584 83.3034 224.881 83.3034 224.881C83.3034 224.881 100.957 200.984 108.836 182.271Z" fill="#C1CFD9"/>
<path d="M107.29 185.747L129.801 198.276C129.801 198.276 131.835 199.624 134.531 196.474C137.239 193.313 177.589 139.824 177.589 139.824C177.589 139.824 178.263 112.615 182.319 111.708C186.375 110.802 188.176 127.713 188.176 127.713C188.176 127.713 191.779 108.21 196.962 108.373C202.145 108.547 198.763 132.211 198.763 132.211C198.763 132.211 208.235 114.905 211.384 115.893C214.545 116.881 206.422 139.813 206.422 139.813C206.422 139.813 213.186 135.373 219.717 138.523C226.248 141.684 228.503 146.868 228.956 150.25C229.409 153.632 227.608 155.655 225.574 155.655C223.54 155.655 223.773 149.088 216.335 148.309C208.897 147.542 206.189 153.202 206.189 157.026C206.189 160.85 209.35 166.255 215.429 166.022C221.518 165.802 221.96 160.374 224.447 159.025C226.922 157.677 231.211 161.966 227.829 167.824C224.447 173.682 213.848 180.365 201.913 171.729C201.913 171.729 163.817 226.218 155.705 236.132C147.594 246.046 136.1 256.426 114.461 244.245C92.8214 232.076 83.2917 224.858 83.2917 224.858C83.2917 224.858 96.0406 198.23 107.279 185.735L107.29 185.747Z" fill="#FCD2DE"/>
<g style="mix-blend-mode:multiply" opacity="0.5">
<path d="M83.3034 224.869C83.3034 224.869 55.2258 206.296 42.2213 197.811L108.708 254.496L105.942 239.34L83.315 224.869H83.3034Z" fill="#C1CFD9"/>
</g>
<path d="M215.638 166.929C221.093 166.929 225.516 162.506 225.516 157.049C225.516 151.593 221.093 147.17 215.638 147.17C210.182 147.17 205.759 151.593 205.759 157.049C205.759 162.506 210.182 166.929 215.638 166.929Z" fill="#2DC374"/>
<path d="M17.5255 327.116L66.4638 337.356C66.4638 337.356 66.2662 346.864 63.5352 355.465C60.8041 364.066 56.5274 368.97 56.5274 368.97L36.7359 364.263C36.7359 364.263 29.7746 381.57 14.8526 380.977C-0.0694572 380.384 -1.39431 380.582 0.860265 371.028C3.11484 361.474 17.5255 327.116 17.5255 327.116Z" fill="#3D7AB8"/>
<path d="M5.69476 380.477C5.69476 380.477 5.50882 375.805 9.08825 363.473C12.6677 351.141 22.6273 328.186 22.6273 328.186" stroke="white" stroke-width="0.85" stroke-miterlimit="10" stroke-linecap="round"/>
<path d="M9.75071 361.299C9.75071 361.299 26.9273 365.053 26.0673 377.688C26.0673 377.688 21.2444 381.128 16.2588 380.977C11.2731 380.826 7.55424 381.081 5.70642 379.826C3.85859 378.571 9.76233 361.288 9.76233 361.288L9.75071 361.299Z" fill="white"/>
<path d="M22.0347 367.646C22.0347 367.646 30.7276 360.544 33.2378 352.85C33.2378 352.85 36.1548 358.301 36.7475 364.263C36.7475 364.263 32.4359 374.805 26.0673 377.688C26.0673 377.688 25.9511 370.586 22.0347 367.634V367.646Z" fill="white"/>
<path d="M168.722 18.6201C148.221 18.6201 143.329 35.4385 143.329 40.1342C143.329 44.8299 145.781 54.1631 150.36 61.2763C154.95 68.3896 156.019 73.678 156.019 77.9204C156.019 77.9204 163.817 80.0357 168.71 80.0357C173.603 80.0357 181.401 77.9204 181.401 77.9204C181.401 73.678 182.47 68.3896 187.06 61.2763C191.651 54.1631 194.091 44.8299 194.091 40.1342C194.091 35.4385 189.199 18.6201 168.698 18.6201H168.722Z" fill="#F9E098"/>
<path d="M159.552 55.2437L163.434 79.5124" stroke="white" stroke-width="0.85" stroke-miterlimit="10" stroke-linecap="round"/>
<path d="M176.38 55.2437L174.009 79.5124" stroke="white" stroke-width="0.85" stroke-miterlimit="10" stroke-linecap="round"/>
<path d="M156.019 58.3238C156.019 58.3238 161.493 58.0565 164.119 54.0815C166.746 50.1064 165.595 41.1684 160.064 41.6914C154.532 42.2144 157.588 56.4177 167.792 56.685C177.996 56.9523 182.853 42.9583 176.601 41.6682C169.826 40.2734 167.06 61.462 183.679 56.685" stroke="white" stroke-width="0.85" stroke-miterlimit="10" stroke-linecap="round"/>
<path d="M167.048 14.7379L164.422 0H170.465L167.827 14.7379H167.048Z" fill="#F9E098"/>
<path d="M185.736 19.6775L194.301 7.39209L198.566 11.6577L186.282 20.2238L185.736 19.6775Z" fill="#F9E098"/>
<path d="M150.883 20.2238L138.61 11.6577L142.875 7.39209L151.44 19.6775L150.883 20.2238Z" fill="#F9E098"/>
<path d="M156.019 77.9087H181.447V85.6147C181.447 92.5652 175.811 98.2023 168.861 98.2023H168.617C161.667 98.2023 156.031 92.5652 156.031 85.6147V77.9087H156.019Z" fill="#2DC374"/>
<path d="M156.019 85.6265C156.019 85.6265 159.901 89.7642 168.71 89.7642C177.519 89.7642 181.436 85.6265 181.436 85.6265C181.436 85.6265 181.215 98.2141 168.849 98.2141C168.849 98.2141 157.112 98.4233 156.008 85.6265H156.019Z" fill="#2BAF66"/>
</g>
<defs>
<clipPath id="clip0_211_5802">
<rect width="339" height="381" fill="white"/>
</clipPath>
</defs>
</svg>

<svg xmlns="http://www.w3.org/2000/svg" width="339" height="381" fill="none"><g clip-path="url(#a)"><path fill="#3D7AB8" d="m332.155 217.814 6.834-2.941-3.185-12.983-7.414.558-5.939-10.809 4.451-5.963-9.251-9.658-6.147 4.184-10.541-6.393.872-7.392-12.842-3.743-3.231 6.707-12.33-.267-2.941-6.835-12.981 3.185.558 7.415-10.808 5.94-5.962-4.452-9.657 9.252 4.183 6.149-6.392 10.553-7.391-.872-3.742 12.844 6.706 3.231-.268 12.332-6.833 2.941 3.184 12.982 7.415-.558 5.938 10.81-4.451 5.962 9.251 9.659 6.148-4.184 10.552 6.392-.871 7.393 12.841 3.742 3.231-6.706 12.331.267 2.94 6.834 12.981-3.184-.558-7.416 10.808-5.939 5.962 4.451 9.658-9.251-4.184-6.149 6.392-10.554 7.391.872 3.742-12.843-6.706-3.231.268-12.332zM278.44 253.45c-16.909 0-30.622-13.715-30.622-30.627s13.713-30.626 30.622-30.626c16.91 0 30.623 13.715 30.623 30.626S295.35 253.45 278.44 253.45M242.077 305.544l5.508-1.023-.186-10.066-5.543-.825-2.569-8.926 4.254-3.638-5.195-8.624-5.206 2.057-6.683-6.451 1.871-5.288-8.809-4.882-3.486 4.382-9.018-2.243-1.023-5.51-10.064.186-.826 5.544-8.925 2.569-3.637-4.254-8.624 5.196 2.057 5.207-6.45 6.683-5.287-1.871-4.881 8.81 4.381 3.487-2.243 9.019-5.509 1.023.186 10.065 5.544.826 2.568 8.926-4.253 3.638 5.194 8.624 5.207-2.057 6.682 6.451-1.871 5.288 8.809 4.882 3.487-4.382 9.018 2.243 1.023 5.509 10.064-.186.825-5.544 8.926-2.568 3.637 4.254 8.623-5.196-2.057-5.207 6.45-6.683 5.288 1.871 4.881-8.81-4.381-3.487zm-45.371 17.26c-12.423-2.813-20.21-15.157-17.409-27.582 2.813-12.424 15.155-20.212 27.578-17.411 12.423 2.813 20.21 15.157 17.409 27.582-2.812 12.424-15.154 20.212-27.578 17.411"/><path fill="#fff" d="M314.467 77.595H205.283a5.74 5.74 0 0 0-5.741 5.742v79.896a5.74 5.74 0 0 0 5.741 5.741h109.184a5.74 5.74 0 0 0 5.741-5.741V83.337a5.74 5.74 0 0 0-5.741-5.742"/><path fill="#21558A" stroke="#21558A" stroke-miterlimit="10" stroke-width="4.24" d="M308.064 162.965a5.92 5.92 0 0 1-5.916-5.916c0-22.223-18.071-40.296-40.291-40.296-22.221 0-40.292 18.073-40.292 40.296a5.92 5.92 0 0 1-5.916 5.916 5.917 5.917 0 0 1-5.915-5.916c0-28.743 23.383-52.129 52.123-52.129s52.122 23.386 52.122 52.129a5.917 5.917 0 0 1-5.915 5.916Z"/><path fill="#2DC374" d="M215.638 162.965a5.92 5.92 0 0 1-5.916-5.916c0-28.743 23.383-52.129 52.123-52.129a5.917 5.917 0 0 1 0 11.833c-22.22 0-40.292 18.073-40.292 40.296a5.917 5.917 0 0 1-5.915 5.916"/><path fill="#21558A" d="M205.027 77.595h109.696a5.49 5.49 0 0 1 5.485 5.486v7.09H199.542v-7.09a5.49 5.49 0 0 1 5.485-5.486"/><path stroke="#2DC374" stroke-linecap="round" stroke-miterlimit="10" stroke-width="1.7" d="M248.782 36.507h-21.267v21.27h21.267z"/><path stroke="#2DC374" stroke-linecap="round" stroke-miterlimit="10" stroke-width="3.39" d="m233.628 43.54 5.113 9.007s11.099-17.83 18.746-23.606"/><path stroke="#2DC374" stroke-linecap="round" stroke-miterlimit="10" stroke-width="1.7" d="M283.542 36.507h-21.267v21.27h21.267z"/><path stroke="#2DC374" stroke-linecap="round" stroke-miterlimit="10" stroke-width="3.39" d="m267.969 43.54 5.114 9.007s11.099-17.83 18.745-23.606"/><path stroke="#2DC374" stroke-linecap="round" stroke-miterlimit="10" stroke-width="1.7" d="M318.302 36.507h-21.267v21.27h21.267z"/><path fill="#21558A" d="M50.473 373.945s14.666-5.951 15.99-36.589l74.274 3.626s36.933 7.613 43.313 1.755c0 0-11.296 30.859-33.458 35.718-22.174 4.846-100.12-4.51-100.12-4.51"/><path fill="#21558A" d="M63.547 355.465c3.928-11.588 3.649-22.154-.628-23.595-4.265-1.441-10.9 6.776-14.829 18.364-3.928 11.588-3.649 22.154.628 23.595 4.265 1.441 10.9-6.776 14.829-18.364"/><path fill="#C1CFD9" d="m66.476 155.666 16.827-7.857s10.216-1.174 13.365 2.208c3.161 3.383 15.55 42.61 15.55 42.61l-34.934 6.985-10.809-43.958z"/><path fill="#C1CFD9" d="M27.613 162.373.872 273.79h111.346l-15.33-83.859s-31.935-30.766-69.275-27.558"/><path fill="#FCD2DE" d="M60.223 79.71c8.972-1.918 21.233-5.149 25.335 5.347 4.102 10.495 11.924 47.386-11.18 51.861S46.44 122.61 46.44 122.61s-9.309 8.043-14.899 0 1.488-16.702 10.436-14.982c0 0-7.077-22.502 18.258-27.906z"/><path fill="#231E1F" d="M38.619 77.595c8.6-6.102 22.36-16.075 25.706-14.517 3.359 1.546 0 6.59 0 6.59s13.412-10.135 20.117-8.706c6.706 1.43 10.808 12.24 9.31 18.76-1.489 6.52-14.9 12.855-24.22 0 0 0-7.078 9.507-11.552 10.251s-8.565-2.231-8.565-2.231-1.86 17.434-7.45 19.898-7.82-1.639-8.936-4.614c-1.116-2.976-8.287-15.563 5.59-25.408z"/><path stroke="#231E1F" stroke-linecap="round" stroke-miterlimit="10" stroke-width=".85" d="M72.147 98.214s1.115 8.124 2.231 9.438c1.116 1.313 2.975 7.648 0 9.519"/><path stroke="#000" stroke-miterlimit="10" stroke-width=".68" d="M34.865 114.207s5.66-3.173 9.192 4.068"/><path stroke="#231E1F" stroke-linecap="round" stroke-miterlimit="10" stroke-width=".85" d="M64.395 120.507s7.357 5.904 14.83.79"/><path fill="#231E1F" d="M63.721 104.944c.22 1.743-.465 3.266-1.522 3.405-1.058.128-2.092-1.174-2.313-2.929-.22-1.755.465-3.266 1.522-3.405 1.058-.128 2.092 1.173 2.313 2.929"/><path stroke="#231E1F" stroke-linecap="round" stroke-miterlimit="10" stroke-width="1.7" d="M56.91 99.376s.919-3.278 4.068-3.673"/><path fill="#FCD2DE" d="m46.44 122.599-2.394 22.99s21.837 12.076 30.018 11.425 6.74-10.112 6.74-10.112l-3.892-10.646s-19.35 2.034-30.472-13.646z"/><path fill="#C1CFD9" d="m42.21 145.845 1.185-8.253 25.73 8.253 6.868 7.357 1.14-9.322 3.776-2.882 2.394 6.822s-.267 9.194-5.648 10.903-25.335-3.417-35.445-12.867z"/><path fill="#21558A" d="M5.44 273.79s-2.081 23.583-1.384 33.276c.697 9.706 3.463 23.909 48.497 28.756 45.033 4.846 128.243 15.191 131.497 6.904s8.112-33.265-7.833-42.436c-15.933-9.17-64.011-26.512-64.011-26.512H5.439z"/><path stroke="#fff" stroke-linecap="round" stroke-miterlimit="10" stroke-width=".85" d="M17.526 327.116s3.962 6.125 48.938 10.24 74.273-2.15 74.273-2.15"/><path fill="#231E1F" d="M77.493 101.631c.267 1.744 1.336 3.022 2.394 2.859 1.057-.162 1.685-1.708 1.418-3.44-.268-1.743-1.337-3.022-2.395-2.86-1.057.163-1.685 1.71-1.417 3.441"/><path stroke="#231E1F" stroke-linecap="round" stroke-miterlimit="10" stroke-width="1.7" d="M82.513 94.402s-1.79-2.906-4.927-2.418"/><path fill="#C1CFD9" d="M108.836 182.271s-34.69-20.724-42.36-26.593c-7.67-5.87-25.033-15.563-34.946-2.708-9.914 12.855-1.349 36.972 14.422 47.793 15.782 10.821 37.351 24.118 37.351 24.118s17.654-23.897 25.533-42.61"/><path fill="#FCD2DE" d="m107.29 185.747 22.511 12.529s2.034 1.348 4.73-1.802c2.708-3.161 43.058-56.65 43.058-56.65s.674-27.209 4.73-28.116c4.056-.906 5.857 16.005 5.857 16.005s3.603-19.503 8.786-19.34c5.183.174 1.801 23.838 1.801 23.838s9.472-17.306 12.621-16.318c3.161.988-4.962 23.92-4.962 23.92s6.764-4.44 13.295-1.29c6.531 3.161 8.786 8.345 9.239 11.727s-1.348 5.405-3.382 5.405-1.801-6.567-9.239-7.346c-7.438-.767-10.146 4.893-10.146 8.717s3.161 9.229 9.24 8.996c6.089-.22 6.531-5.648 9.018-6.997 2.475-1.348 6.764 2.941 3.382 8.799s-13.981 12.541-25.916 3.905c0 0-38.096 54.489-46.208 64.403-8.111 9.914-19.605 20.294-41.244 8.113-21.64-12.169-31.17-19.387-31.17-19.387s12.75-26.628 23.988-39.123z"/><path fill="#C1CFD9" d="M83.303 224.869s-28.077-18.573-41.082-27.058l66.487 56.685-2.766-15.156-22.627-14.471z" opacity=".5" style="mix-blend-mode:multiply"/><path fill="#2DC374" d="M215.638 166.929c5.455 0 9.878-4.423 9.878-9.88 0-5.456-4.423-9.879-9.878-9.879-5.456 0-9.879 4.423-9.879 9.879 0 5.457 4.423 9.88 9.879 9.88"/><path fill="#3D7AB8" d="m17.526 327.116 48.938 10.24s-.198 9.508-2.929 18.109-7.008 13.505-7.008 13.505l-19.791-4.707s-6.961 17.307-21.883 16.714-16.247-.395-13.993-9.949c2.255-9.554 16.666-43.912 16.666-43.912"/><path stroke="#fff" stroke-linecap="round" stroke-miterlimit="10" stroke-width=".85" d="M5.695 380.477s-.186-4.672 3.393-17.004c3.58-12.332 13.54-35.287 13.54-35.287"/><path fill="#fff" d="M9.75 361.299s17.177 3.754 16.317 16.389c0 0-4.823 3.44-9.808 3.289-4.986-.151-8.705.104-10.553-1.151-1.847-1.255 4.056-18.538 4.056-18.538z"/><path fill="#fff" d="M22.035 367.646s8.693-7.102 11.203-14.796c0 0 2.917 5.451 3.51 11.413 0 0-4.312 10.542-10.68 13.425 0 0-.117-7.102-4.033-10.054z"/><path fill="#F9E098" d="M168.722 18.62c-20.501 0-25.393 16.818-25.393 21.514s2.452 14.03 7.031 21.142c4.59 7.114 5.659 12.402 5.659 16.644 0 0 7.798 2.116 12.691 2.116s12.691-2.116 12.691-2.116c0-4.242 1.069-9.53 5.659-16.644 4.591-7.113 7.031-16.446 7.031-21.142s-4.892-21.514-25.393-21.514z"/><path stroke="#fff" stroke-linecap="round" stroke-miterlimit="10" stroke-width=".85" d="m159.552 55.244 3.882 24.268M176.38 55.244l-2.371 24.268M156.019 58.324s5.474-.267 8.1-4.242c2.627-3.976 1.476-12.914-4.055-12.39-5.532.522-2.476 14.726 7.728 14.993s15.061-13.727 8.809-15.017c-6.775-1.395-9.541 19.794 7.078 15.017"/><path fill="#F9E098" d="M167.048 14.738 164.422 0h6.043l-2.638 14.738zM185.736 19.678l8.565-12.286 4.265 4.266-12.284 8.566zM150.883 20.224l-12.273-8.566 4.265-4.266 8.565 12.285z"/><path fill="#2DC374" d="M156.019 77.909h25.428v7.706c0 6.95-5.636 12.587-12.586 12.587h-.244c-6.95 0-12.586-5.637-12.586-12.587v-7.706z"/><path fill="#2BAF66" d="M156.019 85.627s3.882 4.137 12.691 4.137 12.726-4.138 12.726-4.138-.221 12.588-12.587 12.588c0 0-11.737.21-12.841-12.588z"/></g><defs><clipPath id="a"><path fill="#fff" d="M0 0h339v381H0z"/></clipPath></defs></svg>
